src/svg/yandex.svg

<svg height="1000" width="500.0" xmlns="http://www.w3.org/2000/svg">
    <path d="m299 616.8l-170.7 383.2h-124.4l187.5-409.8c-88.1-44.7-146.9-125.7-146.9-275.6-0.2-209.7 132.8-314.6 290.9-314.6h160.7v1000h-107.6v-383.2h-89.5z m89.5-526h-57.4c-86.8 0-170.8 57.4-170.8 223.8 0 160.8 77 212.6 170.8 212.6h57.4v-436.4z" />
  </svg>

<svg height="1000" width="500" xmlns="http://www.w3.org/2000/svg"><path d="M299 616.8L128.3 1000H3.9L191.4 590.2C103.3 545.5 44.5 464.5 44.5 314.6 44.3 104.9 177.3 0 335.4 0h160.7v1000H388.5V616.8H299zm89.5 -526h-57.4c-86.8 0 -170.7 57.4 -170.7 223.8 0 160.8 76.9 212.5 170.7 212.5h57.4V90.8z"/></svg>
